X:1
T:Coleman's March
L:1/8
M:4/4
I:linebreak $
K:D
V:1 treble
V:1
"D"F8 | "G"G6 FG |"D" A2 AB AG F2 | "A"E6 FG |$
"D"A2"A"d2 c4 | "G"B2"D"BA FE D2 | "Em"E2"A7"EF GF E2 |1"D" D4 ABAG :|2 "D" D4 DFAc |:$
"D"d8 | "A"c8 | "G"B2 Bc dc B2 | "D"A6 FG |$
"D"A2"A"d2 c4 | "G"B2"D"BA FE D2 | "Em"E2"A7"EF GF E2 |1"D" D4 DFAc :|2 "D" D4 ABAG |]
